X:1
T:Title
%%score { 1 | 2 }
L:1/8
M:4/4
K:G
V:1 treble nm="Grand Piano"
V:2 bass 
V:1
 z2[Q:1/4=100] B2 BBBB |[M:3/4] [Fc]4 [CDF]2 | [B,DG]4 [DB]2 | [A,DA]3 [Fd] ^c[Ge] | [Fd]6 | %5
 B2 BB BB | c4 F2 | G4 E2 | D3 [B,DG] [A,DF][CDA] | [B,DG]6 |] %10
V:2
 z2 [G,D]2 [G,D][G,D][G,D][G,D] |[M:3/4] [D,A,]4 D,2 | G,,4 G,2 | F,3 [D,A,] [A,E][A,,A,] | %4
 [D,A,]6 | [G,G]2 [G,DG][G,DG] [G,DG][G,DG] | [A,DF]4[K:bass] [D,CD]2 | [G,B,D]4 [C,G,C]2 | %8
 [B,,G,]3 G,, D,D, | G,,6 |] %10

